X:1
T:Title
%%score { ( 1 3 ) | 2 }
L:1/8
Q:1/4=100
M:3/4
K:Eb
V:1 treble nm="Grand Piano"
V:3 treble 
V:2 bass 
V:1
 [GB]2 [FA]2 G2 | c2 B2 A2 | G2 F2 E2 | [DF]6 | z2 z2 F2 | B2 A2 G2 | [A,DF]2 [G,CE]2 [B,DF]2 | %7
w: J.~H.~Leslie * *|||||||
 [B,EG]6 | [EGB]2 [B,FA]2 [B,EG]2 | [Ec]2 [B,EB]2 [B,DA]2 | [B,EG]2 [A,EA]2 [EB]2 | [Ec]6 | %12
w: |||||
 [Ee]2 [Ed]2 [Ec]2 | [EB]2 [DA]2 [EG]2 | [A,CF]2[K:bass] [G,B,E]2 [F,B,D]2 | [G,B,E]6 | %16
w: ||||
 [B,DF]2 [B,DF]2 z2 | [B,EG]2 [B,EG]2 z2 | [B,EG]2 [B,FA]2 [EGB]2 | [EAc]6 | [Ece]2 [EBd]2 [EAc]2 | %21
w: |||||
 .E2 z2 [EG]2 | [A,CF]2[K:bass] [G,B,E]2 [F,B,D]2 | [G,B,E]6 |] %24
w: |||
V:2
 [E,E]2 [E,B,]2 [E,B,E]2 | [A,E]2 [G,B,E]2 [F,B,D]2 | [E,B,E]2 [D,B,]2 [C,=A,C]2 | [B,,B,]6 | %4
 [B,,B,]2 [B,,B,]2 [B,D]2 | [G,B,E]2 [F,B,D]2 [E,B,E]2 | B,,2 C,2 B,,2 | E,6 | E,2 E,2 E,2 | %9
 A,2 G,2 F,2 | E,_D, C,2 [B,,G,]2 | [A,,A,]6 | [C,A,]2 [B,,A,]2 [A,,A,]2 | %13
 [B,,G,]2 [=B,,F,]2 [C,E,]2 | A,,2 B,,2 B,,2 | E,6 | B,,2 B,,2 z2 | E,2 E,2 z2 | E,2 E,2 E,2 | %19
 A,6 | A,,2 A,,B,, C,D, | E,=E, F,2 G,_E, | A,,2 B,,2 B,,2 | E,6 |] %24
V:3
 x6 | x6 | x6 | x6 | [FA]2 [EG]2 z A, | x6 | x6 | x6 | x6 | x6 | x6 | x6 | x6 | x6 | %14
 x2[K:bass] x4 | x6 | x6 | x6 | x6 | x6 | x6 | [GB]-[_DGB] [CFA]2 B,G, | x2[K:bass] x4 | x6 |] %24

